svg/1f632.svg

<svg xmlns="http://www.w3.org/2000/svg" viewBox="0 0 45 45"><defs><clipPath id="a"><path d="M0 36h36V0H0v36z"/></clipPath></defs><g clip-path="url(#a)" transform="matrix(1.25 0 0 -1.25 0 45)"><path d="M36 18c0-9.941-8.059-18-18-18C8.06 0 0 8.059 0 18c0 9.94 8.06 18 18 18 9.941 0 18-8.06 18-18" fill="#ffcc4d"/><path d="M23 9c0-3.314-2.238-6-5-6s-5 2.686-5 6c0 3.313 2.238 6 5 6s5-2.687 5-6M5.999 25a1 1 0 0 0-.799 1.6C8.462 30.95 12.816 31 13 31a1 1 0 0 0 .004-2c-.155-.002-3.569-.086-6.204-3.6a1 1 0 0 0-.801-.4M30.001 25a.997.997 0 0 0-.801.4c-2.64 3.521-6.061 3.599-6.206 3.6-.55.006-.994.456-.991 1.005A.997.997 0 0 0 23 31c.184 0 4.537-.05 7.8-4.4a1 1 0 0 0-.799-1.6" fill="#664500"/><path d="M18 13c-1.657 0-3-1.79-3-4h6c0 2.21-1.343 4-3 4" fill="#f5f8fa"/><path d="M14.5 21.5c0-1.934-1.119-3.5-2.5-3.5s-2.5 1.566-2.5 3.5c0 1.933 1.119 3.5 2.5 3.5s2.5-1.567 2.5-3.5M26.5 21.5c0-1.934-1.119-3.5-2.5-3.5s-2.5 1.566-2.5 3.5c0 1.933 1.119 3.5 2.5 3.5s2.5-1.567 2.5-3.5" fill="#664500"/></g></svg>

<svg xmlns="http://www.w3.org/2000/svg" viewBox="0 0 45 45"><defs><clipPath id="a"><path d="M0 36h36V0H0v36z"/></clipPath></defs><g clip-path="url(#a)" transform="matrix(1.25 0 0 -1.25 0 45)"><path d="M36 18a18 18 0 1 0-36 0 18 18 0 0 0 36 0" fill="#ffcc4d"/><path d="M23 9c0-3.3-2.2-6-5-6s-5 2.7-5 6 2.2 6 5 6 5-2.7 5-6M6 25a1 1 0 0 0-.8 1.6C8.5 30.9 12.8 31 13 31a1 1 0 0 0 0-2c-.1 0-3.6 0-6.2-3.6A1 1 0 0 0 6 25m24 0a1 1 0 0 0-.8.4A8.4 8.4 0 0 1 23 29a1 1 0 0 0-1 1 1 1 0 0 0 1 1c.2 0 4.5 0 7.8-4.4A1 1 0 0 0 30 25" fill="#664500"/><path d="M18 13c-1.7 0-3-1.8-3-4h6c0 2.2-1.3 4-3 4" fill="#f5f8fa"/><path d="M14.5 21.5c0-2-1.1-3.5-2.5-3.5s-2.5 1.6-2.5 3.5S10.6 25 12 25s2.5-1.6 2.5-3.5m12 0c0-2-1.1-3.5-2.5-3.5s-2.5 1.6-2.5 3.5S22.6 25 24 25s2.5-1.6 2.5-3.5" fill="#664500"/></g></svg>
